icons/lines/google-one.svg

<svg xmlns="http://www.w3.org/2000/svg" width="24" height="24" viewBox="0 0 24 24" fill="none" stroke="currentColor" stroke-width="2" stroke-linecap="round" stroke-linejoin="round" >
  <path d="M21.6002 10.2H12.2002V13.9H17.7002C17.6002 14.8 17.0002 16.2 15.7002 17.1C14.9002 17.7 13.7002 18.1 12.2002 18.1C9.6002 18.1 7.3002 16.4 6.5002 13.9C6.3002 13.3 6.2002 12.6 6.2002 11.9C6.2002 11.2 6.3002 10.5 6.5002 9.9C6.6002 9.7 6.6002 9.5 6.7002 9.4C7.6002 7.3 9.7002 5.8 12.2002 5.8C14.1002 5.8 15.3002 6.6 16.1002 7.3L18.9002 4.5C17.2002 3 14.9002 2 12.2002 2C8.3002 2 4.9002 4.2 3.3002 7.5C2.6002 8.9 2.2002 10.4 2.2002 12C2.2002 13.6 2.6002 15.1 3.3002 16.5C4.9002 19.8 8.3002 22 12.2002 22C14.9002 22 17.2002 21.1 18.8002 19.6C20.7002 17.9 21.8002 15.3 21.8002 12.2C21.8002 11.4 21.7002 10.8 21.6002 10.2Z" stroke-miterlimit="10"/>
  </svg>

<svg xmlns="http://www.w3.org/2000/svg" width="24" height="24" viewBox="0 0 24 24" fill="none" stroke="currentColor" stroke-width="2" stroke-linecap="round" stroke-linejoin="round">
  <path d="M12.2 10.2v3.7h5.5c-.1.9-.7 2.3-2 3.2-.8.6-2 1-3.5 1-2.6 0-4.9-1.7-5.7-4.2a6.5 6.5 0 0 1 0-4c.1-.2.1-.4.2-.5a6 6 0 0 1 5.5-3.6c1.9 0 3.1.8 3.9 1.5l2.8-2.8C17.2 3 14.9 2 12.2 2 8.3 2 4.9 4.2 3.3 7.5c-.7 1.4-1.1 2.9-1.1 4.5s.4 3.1 1.1 4.5c1.6 3.3 5 5.5 8.9 5.5 2.7 0 5-.9 6.6-2.4 1.9-1.7 3-4.3 3-7.4 0-.8-.1-1.4-.2-2z" />
</svg>
